src/icons/left-nav/announcements_active.svg

<svg width="20" height="20" viewBox="0 0 20 20" fill="none" xmlns="http://www.w3.org/2000/svg"><path d="M14.0675 3.62164C11.7802 4.53686 9.33857 5.00476 6.87498 4.99997H6.24998C5.15226 4.99838 4.09405 5.40951 3.28533 6.15178C2.47661 6.89405 1.97647 7.91321 1.88416 9.00704C1.79184 10.1009 2.1141 11.1894 2.78698 12.0567C3.45986 12.9241 4.43419 13.5067 5.51665 13.6891C5.7925 14.8181 6.17707 15.9177 6.66498 16.9725C7.05165 17.8091 8.05998 18.0725 8.81665 17.6358L9.36415 17.32C10.0975 16.8966 10.335 15.9933 10.0075 15.2633C9.81063 14.826 9.63597 14.379 9.48415 13.9241C11.0825 14.1391 12.6175 14.5491 14.0675 15.1291C14.6871 13.274 15.002 11.3308 15 9.37497C15 7.36414 14.6725 5.42914 14.0675 3.62164ZM15.2166 3.11664C15.903 5.13171 16.2521 7.24622 16.25 9.37497C16.2521 11.5037 15.903 13.6182 15.2166 15.6333C15.1708 15.7675 15.1241 15.9016 15.075 16.035C15.018 16.1907 15.0251 16.3627 15.0949 16.5131C15.1647 16.6635 15.2914 16.78 15.4471 16.8371C15.6028 16.8941 15.7747 16.8869 15.9252 16.8171C16.0756 16.7473 16.1921 16.6207 16.2491 16.465C16.881 14.7399 17.2776 12.9376 17.4283 11.1066C17.876 10.6414 18.1257 10.0206 18.125 9.37497C18.125 8.7033 17.8591 8.09164 17.4283 7.6433C17.2766 5.8125 16.88 4.01032 16.2491 2.28497C16.2209 2.20787 16.1778 2.13709 16.1222 2.07667C16.0666 2.01624 15.9996 1.96736 15.9252 1.93281C15.7747 1.86303 15.6028 1.85586 15.4471 1.91289C15.2914 1.96991 15.1647 2.08645 15.0949 2.23687C15.0251 2.38729 15.018 2.55927 15.075 2.71497C15.1241 2.8483 15.1716 2.98164 15.2166 3.11664Z" fill="#fafafa"></path></svg>

<svg xmlns="http://www.w3.org/2000/svg" width="20" height="20" fill="none"><path fill="#fafafa" d="M14.068 3.622A19.26 19.26 0 0 1 6.875 5H6.25a4.375 4.375 0 0 0-.733 8.69c.276 1.128.66 2.228 1.148 3.283.387.836 1.395 1.1 2.152.663l.547-.316c.733-.423.971-1.327.643-2.057a14.257 14.257 0 0 1-.523-1.339c1.598.215 3.133.625 4.584 1.205.62-1.855.934-3.798.932-5.754 0-2.01-.328-3.946-.932-5.753Zm1.149-.505a19.35 19.35 0 0 1 1.033 6.258 19.35 19.35 0 0 1-1.175 6.66.625.625 0 1 0 1.174.43 20.458 20.458 0 0 0 1.18-5.358 2.493 2.493 0 0 0 .696-1.732c0-.672-.266-1.283-.697-1.732a20.542 20.542 0 0 0-1.179-5.358.624.624 0 1 0-1.174.43c.05.133.097.267.142.402Z"/></svg>
